X:54
T:GREENSLV- Greensleeves (original)
S:Ballet Lute MS
Q:120
L:1/4
M:6/4
K:C dorian
C|E2FG3/2A/G|F2DB,3/2C/D|E2CC3/2=B,/C|D2=B,G,2z|\
E2FG3/2A/G|F2D=B,3/2C/D|E3/2D/C=B,C=B,|C3G,3||\
B3B2A/G/|F2DB,3/2C/D|E2CC3/2=B,/C|D2=B,G,2G,||
B3B2A/G/|F2DB,3/2C/D|E2C=B,3/2A,/=B,3/2|(C3C2)|]
